X:59
T:Bryan O'Lynn
T:Sonny Brogan's #2
T:Old John's Jig
R:jig
H:See also #126, #134
D:Oisin: Over The Moor to Maggie
Z:Ptit Louis V1
Z:id:hn-jig-45 V2
M:6/8
K:Ador
cAA cAA|GEF GAB|cAA A2G|Add ded|cAA cAA|GEF GAB|cde ged|1 cAG A2B:|2
cAG
A2e||
|:efg eaf|ged cAA|e2d eaa|bag a2g|efg eaf|ged cAA|cde ged|1 cAA A2e:|2
cAA
A2B||
